X:1
M:6/8
K:G
|:D|GAF EFG|Bde dAB|ABG FDB|1 DAB B2d:|2 edB d2B:||2 gfg fdB|
GB ABd|GBd g2e|dBd gfe|abd egf|
gag gfd|cBG GAG|BAG GAG|AGE D2:|
